src/icons/solid/ai/voice-analytics.svg

<svg width="24" height="24" viewBox="0 0 24 24" fill="none" xmlns="http://www.w3.org/2000/svg">
<g clip-path="url(#clip0_6362_992)">
<path fill-rule="evenodd" clip-rule="evenodd" d="M15.9005 9.85059C18.8519 9.85063 21.2451 12.3443 21.2452 15.4199C21.2452 18.4956 18.8419 21 15.9005 21C12.959 21 10.5557 18.4956 10.5557 15.4199C10.5558 15.1914 10.5657 14.9522 10.6056 14.7236C10.7851 13.2378 11.5329 11.9389 12.5997 11.0557C13.5071 10.3075 14.6541 9.85059 15.9005 9.85059ZM14.4542 16.7188C14.2647 16.5112 13.9562 16.5117 13.7569 16.709C13.5577 16.9063 13.5571 17.2277 13.7462 17.4355C14.1849 17.9135 15.0432 18.4648 16.0802 18.4648C16.788 18.4648 17.5754 18.2149 18.3829 17.498C18.5823 17.311 18.6122 16.9783 18.4327 16.7705C18.2532 16.5527 17.9447 16.5325 17.7354 16.709C16.0005 18.2572 14.6137 16.885 14.4542 16.7188ZM13.9659 13.1445C13.4674 13.1446 13.0587 13.5707 13.0587 14.1006C13.0588 14.6304 13.4674 15.0566 13.9659 15.0566C14.4644 15.0566 14.873 14.6304 14.8731 14.1006C14.8731 13.5706 14.4645 13.1445 13.9659 13.1445ZM17.9542 13.1445C17.4558 13.1447 17.047 13.5708 17.047 14.1006C17.0471 14.6303 17.4558 15.0565 17.9542 15.0566C18.4627 15.0566 18.8721 14.6304 18.8722 14.1006C18.8722 13.5706 18.4527 13.1445 17.9542 13.1445Z" fill="#3C3B44"/>
<path fill-rule="evenodd" clip-rule="evenodd" d="M6.84677 4C9.96768 4.00007 12.5107 6.54607 12.6602 9.75684C12.4907 9.86074 12.3303 9.96481 12.1807 10.0791C11.5428 10.5674 11.0348 11.2121 10.6261 11.9082C10.327 12.3965 10.0171 13.0194 9.8077 13.6738C9.76782 13.8089 9.72804 13.9548 9.70809 14.0898C9.67818 14.2145 9.64873 14.3499 9.63876 14.4746C9.61885 14.5577 9.60848 14.6513 9.60848 14.7344C9.5786 14.9629 9.56845 15.1914 9.56845 15.4199V15.4619C8.46173 16.0748 7.12556 16.3342 5.71981 16.0537C3.23709 15.5549 1.30256 13.3522 1.03329 10.7441C0.664358 7.08653 3.41669 4.00002 6.84677 4ZM9.13973 12.1152C8.40167 11.3256 6.49763 10.2872 4.51376 12.0635C4.30443 12.2401 4.2739 12.5728 4.45321 12.791C4.63269 13.0092 4.95203 13.0298 5.15145 12.8428C6.88547 11.3058 8.27094 12.6753 8.43173 12.8428C8.53143 12.9467 8.65172 12.999 8.78134 12.999C8.9108 12.999 9.03036 12.9573 9.12997 12.8535V12.8428C9.32933 12.6453 9.32917 12.323 9.13973 12.1152ZM4.92196 7.66797C4.42352 7.66812 4.01473 8.0948 4.01473 8.61426C4.0148 8.74916 4.04522 8.88389 4.08505 8.99805C4.18476 9.21625 4.35418 9.39316 4.56356 9.49707C4.67309 9.53855 4.79255 9.56929 4.92196 9.56934C5.42039 9.56934 5.82897 9.13362 5.82919 8.61426C5.82919 8.09471 5.42052 7.66797 4.92196 7.66797ZM8.92098 7.66797C8.42244 7.66798 8.01278 8.08433 8.01278 8.61426C8.013 9.14399 8.42257 9.56932 8.92098 9.56934C9.41925 9.56913 9.82799 9.1335 9.82821 8.61426C9.82821 8.09483 9.41939 7.66817 8.92098 7.66797Z" fill="#3C3B44"/>
<path d="M20.5069 4.57227C20.5965 4.57227 20.6862 4.60291 20.7559 4.66504C20.8158 4.72737 20.8659 4.8108 20.8858 4.9043C21.0653 5.87054 21.7933 6.63902 22.6905 6.82617C22.7702 6.84693 22.8504 6.89905 22.9102 6.97168C22.97 7.0443 23 7.13808 23.0001 7.23145C23.0001 7.32481 22.9699 7.41852 22.9102 7.49121C22.8604 7.56394 22.7803 7.61594 22.6905 7.63672C21.7932 7.82381 21.0653 8.59326 20.8858 9.55957C20.8758 9.65305 20.8257 9.73651 20.7559 9.79883C20.6862 9.86094 20.5965 9.8916 20.5069 9.8916C20.4173 9.89157 20.3276 9.86099 20.2579 9.79883C20.1981 9.7365 20.148 9.65306 20.128 9.55957C19.9485 8.59321 19.2207 7.82376 18.3233 7.63672C18.2336 7.61592 18.1536 7.56391 18.0938 7.49121C18.0342 7.41853 18.004 7.3248 18.004 7.23145C18.0041 7.13808 18.0341 7.0443 18.0938 6.97168C18.1536 6.89904 18.2337 6.84694 18.3233 6.82617C19.2207 6.63911 19.9485 5.87063 20.128 4.9043C20.138 4.81079 20.1881 4.72738 20.2579 4.66504C20.3276 4.60286 20.4173 4.5723 20.5069 4.57227Z" fill="#3C3B44"/>
</g>
<defs>
<clipPath id="clip0_6362_992">
<rect width="24" height="24" fill="white"/>
</clipPath>
</defs>
</svg>

<svg xmlns="http://www.w3.org/2000/svg" width="24" height="24" fill="none" viewBox="0 0 24 24"><g fill="currentColor" clip-path="url(#a)"><path fill-rule="evenodd" d="M15.9 9.85c2.952 0 5.345 2.494 5.345 5.57S18.842 21 15.9 21s-5.344-2.504-5.344-5.58c0-.229.01-.468.05-.696a5.64 5.64 0 0 1 1.994-3.668 5.18 5.18 0 0 1 3.3-1.205m-1.446 6.869a.476.476 0 0 0-.697-.01c-.2.197-.2.519-.01.727.438.477 1.296 1.029 2.333 1.029.708 0 1.495-.25 2.303-.967.2-.187.23-.52.05-.728a.487.487 0 0 0-.698-.061c-1.735 1.548-3.121.176-3.28.01m-.488-3.575c-.499 0-.907.427-.907.957s.408.956.907.956c.498 0 .907-.427.907-.956 0-.53-.409-.957-.907-.957m3.988 0c-.498 0-.907.427-.907.957s.409.955.907.956c.509 0 .918-.427.918-.956 0-.53-.42-.957-.918-.957M6.847 4c3.12 0 5.664 2.546 5.813 5.757a6 6 0 0 0-.48.322c-.637.488-1.145 1.133-1.554 1.83a8.4 8.4 0 0 0-.818 1.765c-.04.135-.08.28-.1.416a3 3 0 0 0-.07.385c-.02.083-.03.176-.03.26-.03.228-.04.456-.04.685v.042a5.6 5.6 0 0 1-3.848.592c-2.483-.5-4.417-2.702-4.687-5.31C.664 7.087 3.417 4 6.847 4m2.293 8.115c-.738-.79-2.642-1.828-4.626-.052a.53.53 0 0 0-.06.728.48.48 0 0 0 .697.052c1.734-1.537 3.12-.168 3.28 0 .1.104.22.156.35.156s.25-.042.349-.146v-.01c.2-.198.2-.52.01-.728M4.922 7.668c-.498 0-.907.427-.907.946 0 .135.03.27.07.384.1.218.27.395.479.5.11.04.229.071.358.071.498 0 .907-.435.907-.955s-.408-.946-.907-.946m3.999 0c-.499 0-.908.416-.908.946s.41.955.908.955.907-.436.907-.955c0-.52-.409-.946-.907-.946" clip-rule="evenodd"/><path d="M20.507 4.572c.09 0 .18.03.249.093.06.062.11.146.13.24.18.966.907 1.734 1.805 1.921.08.02.16.073.22.146a.4.4 0 0 1 .09.26.4.4 0 0 1-.09.26.37.37 0 0 1-.22.145c-.898.187-1.626.956-1.805 1.923a.38.38 0 0 1-.13.239.37.37 0 0 1-.25.093.37.37 0 0 1-.248-.093.5.5 0 0 1-.13-.24c-.18-.966-.907-1.735-1.805-1.922a.41.41 0 0 1-.32-.405.41.41 0 0 1 .32-.406c.898-.187 1.625-.955 1.805-1.922a.38.38 0 0 1 .13-.239.37.37 0 0 1 .249-.093"/></g><defs><clipPath id="a"><path fill="currentColor" d="M0 0h24v24H0z"/></clipPath></defs></svg>
